!! 00000] TT[WS
!!!OTL: Du linying
!!!ARE: Asia, China, Shanxi Heshun
!! Ethnic Group: Han
!! WI, 197 (1)
!!!SCT: J0235
!!!YEM: Copyright 1995, estate of Helmut Schaffrath.
**kern
*ICvox
*Ivox
!! Mixed meters:  2/4; 3/4
*M4/8
*k[f#]
*G:
{4a
4b
=1
8ee
8dd
[4g
=2
8g]
8b
8a
8f#
=3
2e
=4
4a
4dd
=5
8ee
8dd
[4g
=6
8g]
8b
8a
8f#
=7
2e}
=8
{4ee
4ee
=9
4b
4dd
=10
8b
8a
4g
=11
8f#
8e
4d
=12
4g
8a
8g
=13
8f#
8e
8g
8d
=14
8d
8e
2d}
==
!!!AGN: Xiaodiao. Qingge
!!!ONB: ESAC (Essen Associative Code) Database: CHINA
!!!AMT: irregular
!!!AIN: vox
!!!EED: Helmut Schaffrath
!!!EEV: 1.0
*-
!!!ONB: Tied note syntax fixed by Craig Sapp, 2004/05/03/
